X:1
T:Missa: Octavi Toni
T:Missa: Octavi Toni
T:Orlando de Lassus
C:Orlando de Lassus
%%score [ 1 2 3 4 ]
L:1/8
Q:1/4=96
M:4/4
K:C
V:1 treble nm="Soprano" snm="S"
V:2 treble nm="Contralto" snm="CAlt."
V:3 treble-8 nm="Tenor" snm="T"
V:4 bass nm="Bass" snm="B"
V:1
!mf! G6 G2 | G2 A2 B2 c2 | (d3 c B2 A2- | A.G G4 ^F2) | G8 || z8 | z8 | z4!mp! G4 | (E2 F2 G2) A2 | %9
w: Ky- ri-|e _ _ e-|lei- * * *||son.|||Chri-|ste _ _ e-|
 G8 | ^F8 ||!mf! A4 B2 c2 | d4 G2 A2 | (BcdB e2 c2 | dB e2 A3 B) | (c2 A2) G4 | z2!f! G2 A2 B2 | %17
w: lei-|son.|Ky- rie e-|lei- son, e-|lei- * * * * *||* * son.|Ky- rie e-|
 (c2 BA G2 A2- |"^rit." A.G!>(! G4 ^F2)!>)! | !fermata!G8 |] %20
w: lei- * * * *||son.|
V:2
!mf! D6 E2 | D2 F2 (G2 FE | G2 A2 G2 F2 | E4 D4) | B,8 || z8 | z8 |!mp! D4 B,2 C2- | C2 D2 E2 A,2 | %9
w: Ky- ri-|e e- lei- * *|||son.|||Chri- ste, Chri-|* * ste e-|
 (D2 E2 DB, E2) | D8 || z8 | z2!mf! D2 E2 F2 | G4 (CDEF | D2 G4 F2) | (G2 FE D2) D2 | E4 F2!f! G2 | %17
w: lei- * * * *|son.||Ky- rie e-|lei- * * * *||son, _ _ _ e-|lei- son, e-|
 (EF D2 E2 C2 |"^rit." B,2!>(! E2 D4)!>)! | !fermata!B,8 |] %20
w: lei- * * * *||son.|
V:3
!mf! (G3 A B2) c2 | B2 d4 c2 | B2 A2 (d3 c | B2 c2 A4) | G8 ||!mp! d4 B2 (c2- | cBAG AB) (c2- | %7
w: Ky- * * ri-|e, Ky- ri-|e e- lei- *||son.|Chri- ste e-|* * * * * * lei-|
 cB/A/ Bc d2 e2) | A4 c4 | (B2 c2 d2 cB) | A8 || z8 | z8 | z4 z2!mf! A2 | B2 c2 d4 | (G2 c4 B2) | %16
w: |son, e-|lei- * * * *|son.|||Ky-|rie e- lei-||
 c4 z2!f! G2 | A2 (B2 c2 e2 |"^rit." d2!>(! cB AG A2)!>)! | !fermata!G8 |] %20
w: son. rie|e- lei- * *||son.|
V:4
!mf! G,6 C,2 | G,2 D,2 (G,2 A,2 | G,2 ^F,2) G,2 D,2 | (E,2 C,2 D,4) | G,,8 || z2!mp! G,4 E,2 | %6
w: Ky- ri-|e e- lei- *|* * son, e-|lei- * *|son.|Chri- ste,|
 (F,3 E,) D,2 C,2 | G,6 C,2 | z2 F,2 E,2 F,2 | (G,2 C,2 B,,2 C,2) | D,8 || z8 | z8 | z8 | %14
w: Chri- * ste e-|lei- son,|Chri- ste e-|lei- * * *|son.||||
 z4 z2!mf! D,2 | E,2 F,2 G,4 | C,4 z4 | z4 z2!f! A,,2 |"^rit." B,,2 C,2!>(! D,4!>)! | %19
w: Ky-|rie e- lei-|son.|Ky-|rie e- lei-|
 !fermata!G,,8 |] %20
w: son.|

